X: 668
T: Bai xinnian
%%abc-version 2.0
%%abcx-abcm2ps-target-version 5.9.1 (29 Sep 2008)
%%abc-creator hum2abc beta
%%abcx-conversion-date 2013/10/02 07:52:30
%%abc-edited-by Helmut Schaffrath
%%humdrum-veritas 1284341174
%%humdrum-veritas-data 3389807944
%%continueall 1
%%barnumbers 0
L: 1/8
M: 2/4
K: F
d d/ f/ d A [I:setbarnb 1]| 
d d/ f/ d A | 
c A c d | 
A4 | 
c FG2 | 
c AG2 | 
c A G F | 
D4 | 
d Ac2 | 
A cA2 | 
c A G G | 
A4 | 
G A G D | 
A GA2 | 
c A G F | 
D4 |]  



